X: 09052
T: JAY ISELIN'S JIG
C: Bob McQuillen 14 Mar 93
B: Bob's Note Book 9 #52
%R: jig
Z: 2018 John Chambers <jc:trillian.mit.edu>
M: 6/8
L: 1/8
K: D
B \
| ABA FAB | AFD DFA | BdB Ade | fdf edB |
| ABA FAB | AFD DFA | BdB AFA | Bdd d2 :|
|: e \
| fdd dfa | baf a2a | fab aba | faf ede |
| fdd dfa | baf aba | fab afe | fdd d2 :|
%%begintext align
%% If you've been to the Folkway Coffee House
%% here in Peterborough, then you have seen a busy young man setting up
%% the sound system and getting the stage ready for the evening's performance.
%% That young man is Jay Iselin, and he sure goes out of his way
%% to make me welcome when I go there. I can't thank you enough,
%% Jay - perhaps this tune will tell you how much I appreciate your
%% hospitality!
%%endtext

%%sep 1 1 500

%%sep 1 1 500

